X:18634
T:What's more pleasing to the Eye. CJF.206
M:2/4
L:1/8
Q:180
S: C.J.Fox MS, 1829/33, Beverley,E.Yorks.
R:Air
O:England
A:East Yorkshire
B:Kidson Coll.Mitchell Lib.M1805
N:I do not know why the key signature is not G. - PJH.
Z:P J Headford 2000
K:C
e2e2|d2d2|c2(ec)|G2z2|f2e2|d2c2|B2c2|(d3^d)|!e2e2|d2d2|c2(ec)|
G2z2|A2A2|G2c2|(ed) (cB)|c4h||!B2G2|d3c|B2G2|D2z2|c2B2|e2d2|^F2G2|
A2z2|!A2A2|B2B2|c2d2|e2z2|d2c2|(Bg) (ec)|(B2"tr"A3/2) G/|" D.C."G4h||


